X: 24101
T: Long Rocks, The
R: slip jig
M: 9/8
K: Gmajor
|:e2d efg e2d|edB A2B AGE|
G2A GED G2B|A2G A2B ABd:|
|:edB d2e dBd|e2d c2d e2d|
g2b agf gfe|d2g G2A Bcd:|

